hornpipes/bobbycaseys.htmlhornpipes/bobbycaseys.htmlhornpipes/bobbycaseys.htmlhornpipes/bobbycaseys.htmlhornpipes/bobbycaseys.htmlhornpipes/bobbycaseys.htmlhornpipes/bobbycaseys.htmlhornpipes/bobbycaseys.htmlhornpipes/bobbycaseys.htmlFrom <I>Altan: Island Angel</I>
hornpipes/bobbycaseys.htmlhornpipes/bobbycaseys.html<PRE>T:Donegal Highland
T:Donegal Highland
M:C|
L:1/8
R:highland
D:Altan: Island Angel
Z:Devin McCabe
K:EMin
A|BEBE cBcA|BEBd cAFA|BEBE cBcB|1Addc BGGA:|2Addc BG B/2c/2d||
!g2 fg B/2B/2B BA|GBag fdef|g2 fg B/2B/2B BA|GBdc BG B/2c/2d|
!g2 fg B/2B/2B BA|GBag fdcA|GBdB cdef|gb a/2g/2f g3A|

%  ABC2Win Version 2.1 7/3/2000
hornpipes/bobbycaseys.htmlhornpipes/bobbycaseys.htmlhornpipes/bobbycaseys.htmlhornpipes/bobbycaseys.htmlhornpipes/bobbycaseys.htmlhornpipes/bobbycaseys.htmlhornpipes/bobbycaseys.html